Costumes/k-block.svg

<?xml version="1.0" encoding="UTF-8" standalone="no"?>
<svg
   version="1.1"
   width="49.72015"
   height="79.9422"
   id="svg5"
   sodipodi:docname="k-block.svg"
   xmlns:inkscape="http://www.inkscape.org/namespaces/inkscape"
   xmlns:sodipodi="http://sodipodi.sourceforge.net/DTD/sodipodi-0.dtd"
   xmlns="http://www.w3.org/2000/svg"
   xmlns:svg="http://www.w3.org/2000/svg">
  <defs
     id="defs9" />
  <sodipodi:namedview
     id="namedview7"
     pagecolor="#ffffff"
     bordercolor="#000000"
     borderopacity="0.25"
     inkscape:showpageshadow="2"
     inkscape:pageopacity="0.0"
     inkscape:pagecheckerboard="0"
     inkscape:deskcolor="#d1d1d1" />
  <!-- Exported by Scratch - http://scratch.mit.edu/ -->
  <g
     id="ID0.14758666092529893"
     transform="translate(-0.29827545,-0.94123766)">
    <path
       id="ID0.5710278595797718"
       fill="#ff9400"
       d="m 289,358 c 3.395,0.271 8.107,-0.774 10,1 -0.257,12.993 0.23,23.221 1,33 10.492,-5.841 10.168,-22.499 17,-32 4.456,-0.123 6.2,2.467 10,3 -3.013,10.654 -9.246,18.087 -12,29 5.025,7.975 7.893,18.107 13,26 -2.226,2.441 -4.525,4.808 -9,5 -3.389,-6.945 -4.646,-16.021 -11,-20 -7.996,4.35 -6.217,13.907 -7,24 -3.52,-0.243 -6.896,2.085 -10,1 -0.816,-22.857 -0.474,-45.645 -2,-70 z"
       transform="matrix(0.97490489,0,0,0.97490489,-273.65,-345.15)" />
    <path
       id="ID0.6252089650370181"
       d="m 332,418 c 0,3.667 0,7.333 0,11 -7.229,0.105 -9.424,5.243 -15,7 -3.29,-7.376 -6.824,-14.51 -8,-24 -7.321,2.451 -3.934,10.906 -4,18 -2.465,-0.132 -4.818,-0.151 -6,1 -0.022,2.355 1.723,2.944 1,6 -5.333,0 -10.667,0 -16,0 -3.247,-23.939 0.625,-52.01 -3,-75 0,-0.333 0,-0.667 0,-1 1.314,-1.283 3.686,-1.283 5,0 1.121,-3.15 0.09,-2.264 0,-6 5.333,0 10.667,0 16,0 0.651,5.349 -1.313,13.313 1,17 3.412,-3.254 3.215,-10.118 6,-14 5.347,3.29 4.602,-0.193 9,-2 4.102,2.231 10.233,2.433 13,6 -1.288,10.853 -12.662,19.452 -12,30 0.589,9.383 9.795,17.02 13,26 z m -41,10 c 3.104,1.085 6.48,-1.243 10,-1 0.783,-10.093 -0.996,-19.65 7,-24 6.354,3.979 7.611,13.055 11,20 4.475,-0.192 6.774,-2.559 9,-5 -5.107,-7.893 -7.975,-18.025 -13,-26 2.754,-10.913 8.987,-18.346 12,-29 -3.8,-0.533 -5.544,-3.123 -10,-3 -6.832,9.501 -6.508,26.159 -17,32 -0.77,-9.779 -1.257,-20.007 -1,-33 -1.893,-1.774 -6.605,-0.729 -10,-1 1.526,24.355 1.184,47.143 2,70 z"
       transform="matrix(0.97490489,0,0,0.97490489,-273.65,-345.15)" />
  </g>
</svg>

<svg version="1.1" width="50" height="81" xmlns="http://www.w3.org/2000/svg" xmlns:xlink="http://www.w3.org/1999/xlink">
  <!-- Exported by Scratch - http://scratch.mit.edu/ -->
  <g id="ID0.14758666092529893">
    <path id="ID0.5710278595797718" fill="#FF9400" d="M 289 358 C 292.395 358.271 297.107 357.226 299 359 C 298.743 371.993 299.230 382.221 300 392 C 310.492 386.159 310.168 369.501 317 360 C 321.456 359.877 323.200 362.467 327 363 C 323.987 373.654 317.754 381.087 315 392 C 320.025 399.975 322.893 410.107 328 418 C 325.774 420.441 323.475 422.808 319 423 C 315.611 416.055 314.354 406.979 308 403 C 300.004 407.350 301.783 416.907 301 427 C 297.480 426.757 294.104 429.085 291 428 C 290.184 405.143 290.526 382.355 289 358 Z " transform="matrix(0.9749048948287964, 0, 0, 0.9749048948287964, -273.65, -345.15)"/>
    <path id="ID0.6252089650370181" d="M 332 418 C 332 421.667 332 425.333 332 429 C 324.771 429.105 322.576 434.243 317 436 C 313.710 428.624 310.176 421.490 309 412 C 301.679 414.451 305.066 422.906 305 430 C 302.535 429.868 300.182 429.849 299 431 C 298.978 433.355 300.723 433.944 300 437 C 294.667 437 289.333 437 284 437 C 280.753 413.061 284.625 384.990 281 362 C 281 361.667 281 361.333 281 361 C 282.314 359.717 284.686 359.717 286 361 C 287.121 357.850 286.090 358.736 286 355 C 291.333 355 296.667 355 302 355 C 302.651 360.349 300.687 368.313 303 372 C 306.412 368.746 306.215 361.882 309 358 C 314.347 361.290 313.602 357.807 318 356 C 322.102 358.231 328.233 358.433 331 362 C 329.712 372.853 318.338 381.452 319 392 C 319.589 401.383 328.795 409.020 332 418 Z M 291 428 C 294.104 429.085 297.480 426.757 301 427 C 301.783 416.907 300.004 407.350 308 403 C 314.354 406.979 315.611 416.055 319 423 C 323.475 422.808 325.774 420.441 328 418 C 322.893 410.107 320.025 399.975 315 392 C 317.754 381.087 323.987 373.654 327 363 C 323.200 362.467 321.456 359.877 317 360 C 310.168 369.501 310.492 386.159 300 392 C 299.230 382.221 298.743 371.993 299 359 C 297.107 357.226 292.395 358.271 289 358 C 290.526 382.355 290.184 405.143 291 428 Z " transform="matrix(0.9749048948287964, 0, 0, 0.9749048948287964, -273.65, -345.15)"/>
  </g>
</svg>
